X:1
T:Title
%%score 1 2
L:1/8
Q:1/4=75
M:2/4
K:Eb
V:1 treble nm="Nylon Gtr., Soprano"
V:2 bass nm="Nylon Gtr., Bass"
V:1
 z2 E[EG] | [GB][GB] [GB][GB] | [GB][GB] [EG][GB] | [Ge][Ge] [Ge][Ac] | [GB]2 E[EG] | %5
w: 1.~Oh,~ we~|love~ the~ chil dren's~|meet ing,~ Where~ we~|learn~ the~ gold en~|rule;~ Here~ we~|
 [GB][GB] [GB][GB] | [GB][EG] E[EF] | [EG][EA] [DG][DF] | E4 | [Ge]2 [Ac]2 | [GB]3 [GB] | %11
w: come~ with~ hap py~|greet ing~ In~ our~|pre cious~ lit tle~|school.~|||
 [Ac][Ae] [Ae][Ac] | [GB]2 [GB][EG] | [B,E][B,F] [EG][GB] | [Ac][GB] E[EF] | [EG][EA] [DG][DF] | %16
w: |||||
 E2 z2 |] %17
w: |
V:2
 z2 [E,G,][E,B,] | [E,E][E,E] [E,E][E,E] | [E,E][E,B,] [E,B,][E,B,] | [E,B,][E,B,] [E,B,][E,E] | %4
 [E,E]2 [E,G,][E,B,] | [E,E][E,E] [E,E][E,E] | [E,B,][E,B,] [E,G,][E,A,] | %7
 [E,B,][A,,C] [B,,B,][B,,A,] | [E,G,]4 | [E,B,]2 [E,E]2 | [E,E]3 [E,E] | [A,E][A,C] [A,C][A,E] | %12
 [E,E]2 [E,B,][E,B,] | [E,G,][E,A,] [E,B,][E,E] | [E,E][E,B,] [E,G,][E,A,] | %15
 [E,B,][A,,C] [B,,B,][B,,A,] | [E,G,]2 z2 |] %17

